X: 1
T: Tam's Grey Mare
C: Joseph Lowe
R: Reel
M: C
L: 1/8
K: Edor
|: EBBA GFGA | BEEc dcBA | EBBA GFGB | ADFA dcBA :|
| Begf edeA | Begf efgb | Begf edec | dBAF DFAF |
| Begf edeA | Begf efgb | afge fdec | dBAF DFAF ||
